public/icons/other/four-star-icon.svg

<?xml version="1.0" encoding="UTF-8" standalone="no"?>
<!-- Uploaded to: SVG Repo, www.svgrepo.com, Transformed by: SVG Repo Mixer Tools -->

<svg
   width="800px"
   height="800px"
   viewBox="0 0 24 24"
   fill="none"
   version="1.1"
   id="svg1"
   sodipodi:docname="four-star-icon.svg"
   inkscape:version="1.3.2 (091e20e, 2023-11-25, custom)"
   xmlns:inkscape="http://www.inkscape.org/namespaces/inkscape"
   xmlns:sodipodi="http://sodipodi.sourceforge.net/DTD/sodipodi-0.dtd"
   xmlns="http://www.w3.org/2000/svg"
   xmlns:svg="http://www.w3.org/2000/svg">
  <defs
     id="defs1" />
  <sodipodi:namedview
     id="namedview1"
     pagecolor="#ffffff"
     bordercolor="#000000"
     borderopacity="0.25"
     inkscape:showpageshadow="2"
     inkscape:pageopacity="0.0"
     inkscape:pagecheckerboard="0"
     inkscape:deskcolor="#d1d1d1"
     inkscape:zoom="1.01625"
     inkscape:cx="400"
     inkscape:cy="400"
     inkscape:window-width="1920"
     inkscape:window-height="1009"
     inkscape:window-x="293"
     inkscape:window-y="1432"
     inkscape:window-maximized="1"
     inkscape:current-layer="svg1" />
  <g
     id="SVGRepo_bgCarrier"
     stroke-width="0" />
  <g
     id="SVGRepo_tracerCarrier"
     stroke-linecap="round"
     stroke-linejoin="round" />
  <g
     id="SVGRepo_iconCarrier"
     transform="matrix(0.89999887,0,0,0.89999887,1.200004,1.2000263)">
    <path
       d="M 9.15316,5.40838 C 10.4198,3.13613 11.0531,2 12,2 c 0.9469,0 1.5802,1.13612 2.8468,3.40837 l 0.3277,0.58786 c 0.36,0.6457 0.5399,0.96856 0.8206,1.18158 0.2806,0.21302 0.63,0.29209 1.329,0.45024 l 0.6364,0.14398 c 2.4596,0.55653 3.6895,0.83479 3.9821,1.7757 0.2926,0.94087 -0.5458,1.92137 -2.2227,3.88217 l -0.4338,0.5073 c -0.4765,0.5572 -0.7148,0.8358 -0.822,1.1805 -0.1071,0.3447 -0.0711,0.7164 9e-4,1.4599 l 0.0656,0.6768 c 0.2535,2.6162 0.3803,3.9243 -0.3857,4.5058 -0.7661,0.5815 -1.9176,0.0513 -4.2206,-1.009 L 13.3285,20.4768 C 12.6741,20.1755 12.3469,20.0248 12,20.0248 c -0.3469,0 -0.6741,0.1507 -1.3285,0.452 l -0.5958,0.2744 C 7.77268,21.8115 6.62118,22.3417 5.85515,21.7602 5.08912,21.1787 5.21588,19.8706 5.4694,17.2544 L 5.53498,16.5776 C 5.60703,15.8341 5.64305,15.4624 5.53586,15.1177 5.42868,14.773 5.19043,14.4944 4.71392,13.9372 L 4.2801,13.4299 C 2.60325,11.4691 1.76482,10.4886 2.05742,9.54773 2.35002,8.60682 3.57986,8.32856 6.03954,7.77203 L 6.67589,7.62805 C 7.37485,7.4699 7.72433,7.39083 8.00494,7.17781 8.28555,6.96479 8.46553,6.64194 8.82547,5.99623 Z"
       fill="#b19af4"
       id="path1" />
  </g>
</svg>

<!DOCTYPE svg PUBLIC "-//W3C//DTD SVG 1.1//EN" "http://www.w3.org/Graphics/SVG/1.1/DTD/svg11.dtd">
<!-- Uploaded to: SVG Repo, www.svgrepo.com, Transformed by: SVG Repo Mixer Tools -->
<svg width="800px" height="800px" viewBox="0 0 24 24" fill="none" xmlns="http://www.w3.org/2000/svg">
<g id="SVGRepo_bgCarrier" stroke-width="0"/>
<g id="SVGRepo_tracerCarrier" stroke-linecap="round" stroke-linejoin="round"/>
<g id="SVGRepo_iconCarrier"> <path d="M9.15316 5.40838C10.4198 3.13613 11.0531 2 12 2C12.9469 2 13.5802 3.13612 14.8468 5.40837L15.1745 5.99623C15.5345 6.64193 15.7144 6.96479 15.9951 7.17781C16.2757 7.39083 16.6251 7.4699 17.3241 7.62805L17.9605 7.77203C20.4201 8.32856 21.65 8.60682 21.9426 9.54773C22.2352 10.4886 21.3968 11.4691 19.7199 13.4299L19.2861 13.9372C18.8096 14.4944 18.5713 14.773 18.4641 15.1177C18.357 15.4624 18.393 15.8341 18.465 16.5776L18.5306 17.2544C18.7841 19.8706 18.9109 21.1787 18.1449 21.7602C17.3788 22.3417 16.2273 21.8115 13.9243 20.7512L13.3285 20.4768C12.6741 20.1755 12.3469 20.0248 12 20.0248C11.6531 20.0248 11.3259 20.1755 10.6715 20.4768L10.0757 20.7512C7.77268 21.8115 6.62118 22.3417 5.85515 21.7602C5.08912 21.1787 5.21588 19.8706 5.4694 17.2544L5.53498 16.5776C5.60703 15.8341 5.64305 15.4624 5.53586 15.1177C5.42868 14.773 5.19043 14.4944 4.71392 13.9372L4.2801 13.4299C2.60325 11.4691 1.76482 10.4886 2.05742 9.54773C2.35002 8.60682 3.57986 8.32856 6.03954 7.77203L6.67589 7.62805C7.37485 7.4699 7.72433 7.39083 8.00494 7.17781C8.28555 6.96479 8.46553 6.64194 8.82547 5.99623L9.15316 5.40838Z" fill="#B19AF4"/> </g>
</svg>
